X:1
T:Title
%%score { 1 | 2 }
L:1/8
Q:1/4=100
M:4/4
K:G
V:1 treble nm="Grand Piano"
V:2 bass 
V:1
 BBBB c2 B2 | A[G,EG][G,DF][G,CE] [G,B,D]4 | [G,DG][G,DG][G,DG][G,DG] [G,DG][G,DG][CDF][B,DG] | %3
w: John~R.~Sweney * * * * *|||
 A2 B2 A4 | BBBB c2 B2 | [EA][EG][EG][CE] [CG]4 | [B,D][B,D][DG]A BB[Gd][Ec] | [DB]2 [CA]2 [B,G]4 | %8
w: |||||
 dddd e2 d2 | [Fd][FA][FA][GB] [Ac]4 | [Fc][Fc][Fc][Fc] [Fd]2 [FA]2 | BAB[Ac] [Gd]4 | %12
w: ||||
 [Ge][Ge][Ge][Ge] [Gc]2 [Ge]2 | dddd B4 | [B,D][B,D][DG]A BB[Gd][Ec] | [DB]2 [CA]2 [B,G]4 |] %16
w: ||||
V:2
 [G,D][G,D][G,D][G,D] [G,E]2 [G,D]2 | [C,G,C]C,C,C, G,,4 | B,,B,,B,,B,, B,,B,,A,,G,, | %3
 [D,F,D]2 [D,G,D]2 [D,F,D]4 | [G,D][G,D][G,D][G,D] [G,E]2 [G,D]2 | [C,C][C,C][C,C][C,G,] [C,E,]4 | %6
 [G,,G,][G,,G,][B,,G,][D,F,D] [G,D][G,D][B,,G,][C,G,] | [D,G,]2 [D,F,]2 [G,,G,]4 | %8
 [G,B,G][G,B,G][G,B,G][G,B,G] [G,CG]2 [G,B,G]2 | [D,A,][D,D][D,D][D,D] [D,D]4 | %10
 [D,A,][D,A,][D,A,][D,A,] [D,A,]2 [D,D]2 | [G,DG][G,DF][G,DG][G,D] [G,B,]4 | %12
 [C,C][C,C][C,C][C,C] [E,C]2 [C,C]2 | [G,B,G][G,B,G][G,B,G][G,B,G] [G,DG]4 | %14
 [G,,G,][G,,G,][B,,G,][D,F,D] [G,D][G,D][B,,G,][C,G,] | [D,G,]2 [D,F,]2 [G,,G,]4 |] %16

